X: 2
T: O Sole Mio
C: E. di Capua
N: Words by G. Capurro
Z: John Chambers <jc@trillian.mit.edu>
M: 4/4
L: 1/4
K: A
|: "A"ze dc | B2 A2 | AB cA | "Bm"G2 F2- | FG AB | "E7"GF F2- | FG AB | "A"FE E2 |
| "A"ze dc | B2 A2 | AB cA | "Bm"{A}G2 F2- | Fd cB | "A"ec BA | "E7"B3 c | "A"B{cB}A3 ||
|| zHa HaHg | "A"{g}e2 e2- | eg gf | "Bm"{f}d4- | dg gf | "Bm"{f}d2 d2- | "E7"dB cd | "A"e4 |
| z3 e | "Dm"=f4- | fd a>=f | "A"e2 e2- | ec BA | "E7"e4- | ec {Bc}B>G | "A"A4 :|
|["Coda" zc BA | "E7"e4- | ee [c'e]>[bd] | "A"[a4c4] |]
